cc-by-sa/knowledge/modules/using_type/lessons/from_type_to_logotype/images/24_avatar.svg

<svg xmlns="http://www.w3.org/2000/svg" width="1920" height="1080" fill="none"><g clip-path="url(#a)"><path fill="#D2E3FC" d="M567.5 862C746.716 862 892 717.836 892 540S746.716 218 567.5 218 243 362.164 243 540s145.284 322 324.5 322Z"/><path fill="#1A73E8" d="m389.481 714.95 24.96-74.813H677.48v74.813H389.481ZM499.69 611.036h-75.391l91.884-275.915h75.391L499.69 611.036Z"/><path fill="#1A73E8" d="M635.539 611.036h75.398l-91.891-275.915h-75.391l91.884 275.915Z"/><path fill="#1A73E8" d="M670.121 714.938h75.392l-91.885-275.915h-75.391l91.884 275.915ZM590.949 409.941v-74.814h-46.663v74.814h46.663ZM568.101 590.347c20.911 0 37.863-16.82 37.863-37.568 0-20.748-16.952-37.568-37.863-37.568-20.911 0-37.863 16.82-37.863 37.568 0 20.748 16.952 37.568 37.863 37.568Z"/><path fill="#D2E3FC" d="M609.454 571.066c10.219 0 18.504-8.223 18.504-18.366 0-10.143-8.285-18.366-18.504-18.366-10.22 0-18.505 8.223-18.505 18.366 0 10.143 8.285 18.366 18.505 18.366Z"/></g><g clip-path="url(#b)"><path fill="#D2E3FC" d="M1677 218h-644v644h644V218Z"/><path fill="#1A73E8" d="m1177.99 714.95 24.98-74.813h263.28v74.813h-288.26ZM1288.29 611.036h-75.45l91.97-275.915h75.46l-91.98 275.915Z"/><path fill="#1A73E8" d="M1424.27 611.036h75.46l-91.97-275.915h-75.46l91.97 275.915Z"/><path fill="#1A73E8" d="M1458.88 714.938h75.46l-91.97-275.915h-75.46l91.97 275.915ZM1379.63 409.935v-74.814h-46.7v74.814h46.7ZM1356.77 590.347c20.92 0 37.89-16.82 37.89-37.568 0-20.748-16.97-37.568-37.89-37.568-20.93 0-37.9 16.82-37.9 37.568 0 20.748 16.97 37.568 37.9 37.568Z"/><path fill="#D2E3FC" d="M1398.16 571.066c10.22 0 18.52-8.223 18.52-18.366 0-10.143-8.3-18.366-18.52-18.366-10.23 0-18.53 8.223-18.53 18.366 0 10.143 8.3 18.366 18.53 18.366Z"/></g><defs><clipPath id="a"><path fill="#fff" d="M243 218h649v644H243z"/></clipPath><clipPath id="b"><path fill="#fff" d="M1033 218h644v644h-644z"/></clipPath></defs></svg>

<svg width="1920" height="1080" viewBox="0 0 1920 1080" fill="none" xmlns="http://www.w3.org/2000/svg">
<g clip-path="url(#clip0_3303_15869)">
<path d="M567.5 862C746.716 862 892 717.836 892 540C892 362.164 746.716 218 567.5 218C388.284 218 243 362.164 243 540C243 717.836 388.284 862 567.5 862Z" fill="#D2E3FC"/>
<path d="M389.481 714.95L414.441 640.137H677.48V714.95H389.481Z" fill="#1A73E8"/>
<path d="M499.69 611.036H424.299L516.183 335.121H591.574L499.69 611.036Z" fill="#1A73E8"/>
<path d="M635.539 611.036H710.937L619.046 335.121H543.655L635.539 611.036Z" fill="#1A73E8"/>
<path d="M670.121 714.938H745.513L653.628 439.023H578.237L670.121 714.938Z" fill="#1A73E8"/>
<path d="M590.949 409.941V335.127H544.286V409.941H590.949Z" fill="#1A73E8"/>
<path d="M568.101 590.347C589.012 590.347 605.964 573.527 605.964 552.779C605.964 532.031 589.012 515.211 568.101 515.211C547.19 515.211 530.238 532.031 530.238 552.779C530.238 573.527 547.19 590.347 568.101 590.347Z" fill="#1A73E8"/>
<path d="M609.454 571.066C619.673 571.066 627.958 562.843 627.958 552.7C627.958 542.557 619.673 534.334 609.454 534.334C599.234 534.334 590.949 542.557 590.949 552.7C590.949 562.843 599.234 571.066 609.454 571.066Z" fill="#D2E3FC"/>
</g>
<g clip-path="url(#clip1_3303_15869)">
<path d="M1677 218H1033V862H1677V218Z" fill="#D2E3FC"/>
<path d="M1177.99 714.95L1202.97 640.137H1466.25V714.95H1177.99Z" fill="#1A73E8"/>
<path d="M1288.29 611.036H1212.84L1304.81 335.121H1380.27L1288.29 611.036Z" fill="#1A73E8"/>
<path d="M1424.27 611.036H1499.73L1407.76 335.121H1332.3L1424.27 611.036Z" fill="#1A73E8"/>
<path d="M1458.88 714.938H1534.34L1442.37 439.023H1366.91L1458.88 714.938Z" fill="#1A73E8"/>
<path d="M1379.63 409.935V335.121H1332.93V409.935H1379.63Z" fill="#1A73E8"/>
<path d="M1356.77 590.347C1377.69 590.347 1394.66 573.527 1394.66 552.779C1394.66 532.031 1377.69 515.211 1356.77 515.211C1335.84 515.211 1318.87 532.031 1318.87 552.779C1318.87 573.527 1335.84 590.347 1356.77 590.347Z" fill="#1A73E8"/>
<path d="M1398.16 571.066C1408.38 571.066 1416.68 562.843 1416.68 552.7C1416.68 542.557 1408.38 534.334 1398.16 534.334C1387.93 534.334 1379.63 542.557 1379.63 552.7C1379.63 562.843 1387.93 571.066 1398.16 571.066Z" fill="#D2E3FC"/>
</g>
<defs>
<clipPath id="clip0_3303_15869">
<rect width="649" height="644" fill="white" transform="translate(243 218)"/>
</clipPath>
<clipPath id="clip1_3303_15869">
<rect width="644" height="644" fill="white" transform="translate(1033 218)"/>
</clipPath>
</defs>
</svg>
